public/images/logos/logo-thebeachboys.svg

<svg width="662" height="319" viewBox="0 0 662 319" fill="none" xmlns="http://www.w3.org/2000/svg">
<path fill-rule="evenodd" clip-rule="evenodd" d="M284.374 1.7084C285.615 10.3695 284.589 21.2943 284.924 30.8616C288.923 29.846 292.846 24.9279 298.676 26.46C306.292 28.4655 305.639 42.3058 306.378 51.7617C314.694 52.0046 311.233 42.4642 310.778 36.9125C309.677 23.5311 316.204 4.83991 327.278 2.80855C350.229 -1.40008 348.271 32.3179 328.93 33.0629C321.268 26.1279 333.791 22.9464 333.878 15.4613C319.604 9.45942 315.335 41.5435 330.58 40.212C341.635 39.2472 342.898 12.4517 354.233 25.3628C352.115 32.2949 349.716 38.6415 345.981 42.9634C344.021 45.228 338.6 50.3717 334.431 51.2136C331.473 51.8107 327.978 49.8965 324.529 50.6626C317.506 52.2245 314.467 67.1601 303.078 64.9646C292.347 62.8968 299.955 38.1298 291.529 38.0136C284.388 37.9138 283.942 55.6344 284.378 65.5137C284.636 71.4014 285.499 78.3115 281.076 79.2657C271.356 81.3652 273.927 60.7473 273.927 51.7627C273.927 38.8536 273.927 27.5084 273.927 17.6597C270.558 19.453 263.23 19.79 261.275 24.2597C259.694 27.877 260.911 36.5976 260.728 41.8632C260.483 48.8289 261.091 56.3947 260.728 64.4145C260.193 76.1601 263.915 89.8122 255.776 93.5678C247.788 88.0055 250.825 72.5303 250.825 60.0139C250.825 46.8178 251.672 33.1339 249.723 23.1605C241.617 24.5688 237.048 25.356 233.771 29.7624C229.399 35.6434 229.609 46.1611 234.871 50.1144C239.876 53.8718 248.142 50.6261 249.171 56.1662C250.09 61.09 244.727 62.9957 242.022 63.3153C233.938 64.2763 223.899 56.3947 221.668 49.5643C217.485 36.731 225.572 22.2504 234.869 17.1116C249.717 8.9055 270.052 15.7503 277.774 0.0591152C280.79 -0.207764 282.889 0.444081 284.374 1.70936V1.7084Z" fill="white"/>
<path fill-rule="evenodd" clip-rule="evenodd" d="M99.5548 107.318C111.515 114.94 118.456 132.036 113.306 149.122C104.3 179.002 64.3804 177.661 26.3971 174.422C26.5575 167.636 31.61 161.839 35.1984 155.723C42.2957 143.618 48.8486 132.332 56.0995 119.417C59.1321 114.022 63.1498 104.811 72.0518 108.419C76.0473 119.154 66.8054 127.524 62.1504 135.371C57.1603 143.781 52.2998 152.396 47.8483 160.672C73.3996 163.258 105.469 161.167 101.203 134.269C100.435 129.419 96.8754 124.274 94.054 121.068C89.1628 115.512 80.4643 114.596 83.6025 103.466C85.4899 96.7789 97.0233 92.4455 102.854 85.3146C125.673 57.4084 104.913 21.204 75.3513 15.4584C54.8918 11.4802 23.6775 19.9954 15.9456 36.3605C12.2093 44.269 12.3207 56.2997 15.3965 63.3124C17.8925 69.0081 31.3815 76.5057 21.9965 84.2145C-7.1279 79.4673 -5.02262 33.3615 14.8465 16.5576C38.6544 -3.57352 89.6687 -3.23081 111.658 18.7608C135.986 43.0881 127.515 90.1895 99.5558 107.318H99.5548Z" fill="white"/>
<path fill-rule="evenodd" clip-rule="evenodd" d="M451.587 105.666C463.001 114.613 470.566 134.506 463.69 152.421C459.649 162.95 447.316 173.137 433.987 174.973C417.687 177.215 397.355 173.786 377.881 174.42C384.137 158.418 395.145 140.342 404.832 123.815C408.512 117.544 411.672 105.626 422.436 108.966C428.388 118.292 419.249 127.589 414.734 134.819C409.589 143.06 404.003 151.029 400.43 159.02C405.877 162.508 413.891 161.46 420.232 161.222C436.497 160.612 450.206 156.061 452.687 142.519C455.181 128.889 448.571 121.872 441.685 116.668C438.115 113.972 433.636 112.435 432.884 108.966C431.115 100.804 440.527 97.5565 446.633 92.4628C456.444 84.2884 465.126 70.4116 462.039 50.1115C459.23 31.6584 444.032 17.3832 423.531 15.4594C394.979 12.7752 359.963 24.4651 364.125 55.6132C364.777 60.4852 369.185 64.3012 369.075 69.9134C368.971 75.4103 361.878 83.5156 359.176 88.6161C355.482 95.5895 352.772 100.514 349.276 107.317C360.375 113.614 371.289 120.903 367.977 139.22C366.628 146.664 359.203 155.215 354.226 162.324C340.425 182.01 318.354 204.393 289.869 206.875C266.06 208.956 97.1038 207.426 39.597 207.426C31.4831 207.426 10.7232 209.981 10.4448 200.822C10.1606 191.469 29.3404 193.674 37.9459 193.674C97.4629 193.674 263.638 195.508 286.568 193.674C311.231 191.707 330.032 171.426 342.674 154.075C346.151 149.297 353.407 141.266 354.224 135.923C354.965 131.057 351.874 122.993 348.172 122.171C338.795 120.086 334.478 133.641 328.922 141.972C323.104 150.699 317.127 158.404 311.321 163.421C302.121 171.372 285.547 182.518 269.517 176.627C265.851 175.278 261.346 169.108 257.963 168.924C255.023 168.766 252.734 172.5 250.265 173.874C241.27 178.872 233.173 176.442 224.962 168.924C218.066 171.248 212.891 176.064 205.161 176.075C193.773 176.094 185.886 166.661 180.959 159.02C168.007 167.372 148.55 181.936 130.354 172.771C124.358 169.753 117.596 161.63 117.153 152.422C116.368 136.128 129.624 114.079 141.904 108.418C157.123 101.402 178.201 109.513 174.909 128.767C174.036 133.867 166.347 141.881 160.607 144.719C154.949 147.518 132.567 152.996 136.403 139.768C139.123 130.389 161.831 136.683 159.506 121.617C150.538 115.583 142.11 124.065 137.503 130.967C135.004 134.709 127.057 151.501 133.653 158.47C139.787 164.948 154.772 158.547 162.255 154.617C169.11 151.019 174.381 146.231 179.306 140.87C183.775 136 187.018 128.619 191.957 122.716C198.997 114.302 216.063 103.936 229.36 108.416C233.142 109.69 240.16 114.97 242.012 121.617C246.12 136.36 234.648 143.019 234.312 157.372C236.271 164.86 244.966 163.123 248.612 157.372C251.838 152.282 252.08 144.374 254.664 138.116C261.923 120.521 274.235 102.445 302.518 109.515C311.715 114.816 314.105 139.827 298.667 140.319C292.683 137.176 295.584 129.258 294.815 122.715C283.857 118.641 275.142 129.095 270.613 137.015C265.974 145.133 263.664 159.254 273.914 162.869C287.831 167.777 304.153 152.255 309.668 144.717C313.535 139.428 316.601 132.462 320.668 126.017C328.356 113.841 334.899 103.572 342.672 89.7124C345.893 83.963 351.99 75.3086 352.57 70.4606C353.057 66.4171 351.101 61.5883 350.922 58.9099C348.278 19.4751 380.831 -1.82441 422.429 1.15447C453.84 3.4047 475.145 25.2475 476.881 56.7096C478.117 78.9067 468.263 93.8855 451.587 105.663V105.666ZM213.416 124.367C209.317 126.266 201.492 134.211 197.401 142.269C185.208 166.278 215.018 166.95 225.259 142.667C226.524 139.67 229.642 129.128 227.72 125.466C225.785 121.786 216.556 122.916 213.416 124.366V124.367Z" fill="white"/>
<path fill-rule="evenodd" clip-rule="evenodd" d="M530.796 117.77C537.228 113.393 541.39 104.548 555.548 107.319C559.763 108.143 564.913 113.465 565.448 118.319C566.937 131.826 548.936 138.803 552.246 153.523C553.236 157.919 558.306 161.344 565.448 160.123C575.107 158.47 580.144 144.211 585.25 134.27C588.275 128.374 590.533 124.707 593.5 119.417C596.94 113.284 599.437 107.46 603.401 106.767C606.774 106.178 610.989 107.617 612.202 110.617C614.701 116.809 605.558 126.584 602.849 131.523C591.619 151.993 580.623 172.495 569.844 192.575C600.842 193.632 635.765 193.736 636.952 167.825C637.691 151.716 621.228 142.598 618.801 128.769C615.598 110.521 635.012 100.559 650.702 107.318C654.217 108.831 658.979 114.038 660.604 118.868C662.337 124.012 663.285 135.183 656.755 135.922C647.614 136.951 647.017 110.461 634.201 123.817C635.853 141.204 651.161 144.341 651.804 163.971C652.449 183.741 636.339 203.139 615.5 205.775C597.058 208.106 584.866 204.819 563.244 206.325C541.073 234.965 523.578 276.496 495.038 299.835C484.345 308.578 468.203 318.297 450.486 318.538C433.931 318.758 420.457 309.277 413.081 299.835C406.514 291.433 399.518 277.342 399.88 261.883C400.523 234.476 414.996 220.841 430.129 206.876C421.26 206.617 406.267 206.876 394.378 206.876C383.933 206.876 363.249 209.669 361.924 201.377C360.271 191.029 376.69 193.123 391.077 193.123C419.029 193.123 439.121 193.123 464.78 193.123C475.133 193.123 495.737 190.609 500.536 194.226C502.228 195.502 503.366 201.386 502.186 203.575C499.857 207.891 488.845 205.966 482.383 206.325C448.954 208.178 421.984 225.166 413.627 251.431C405.57 276.752 427.682 300.955 447.181 303.135C449.04 303.342 452.298 303.35 454.881 303.135C478.258 301.195 495.083 281.438 508.787 263.532C523.048 244.896 534.783 225.976 544.54 206.326C532.899 204.305 506.937 211.969 508.234 198.628C509.332 187.387 540.542 195.255 550.038 192.575C556.83 190.664 558.252 183.614 560.491 178.275C550.1 169.062 534.964 167.477 538.487 144.172C539.816 135.376 546.43 130.327 549.486 122.17C544.999 123.884 537.803 128.348 533.535 132.62C520.037 146.133 520.181 174.911 492.831 174.974C481.749 175.001 471.989 169.504 468.631 161.772C459.849 141.557 478.99 118.821 490.079 110.064C493.985 110.198 495.404 112.813 497.782 114.469C503.515 100.508 527.561 103.287 530.797 117.768L530.796 117.77ZM510.994 123.817C512.539 125.053 514.335 125.861 515.945 124.368C516.507 120.256 511.049 120.345 510.994 123.817ZM495.041 124.368C494.49 124.368 493.943 124.368 493.391 124.368C485.57 131.221 473.238 162.346 494.491 160.673C504.497 159.885 509.644 147.339 512.095 139.221C503.057 137.625 498.189 131.858 495.042 124.368H495.041Z" fill="white"/>
</svg>

<svg xmlns="http://www.w3.org/2000/svg" width="662" height="319" fill="none" viewBox="0 0 662 319"><path fill="#fff" fill-rule="evenodd" d="M284.374 1.708c1.241 8.662.215 19.586.55 29.154 3.999-1.016 7.922-5.934 13.752-4.402 7.616 2.005 6.963 15.846 7.702 25.302 8.316.243 4.855-9.298 4.4-14.85-1.101-13.38 5.426-32.072 16.5-34.103 22.951-4.21 20.993 29.509 1.652 30.254-7.662-6.935 4.861-10.117 4.948-17.602-14.274-6.002-18.543 26.083-3.298 24.751 11.055-.965 12.318-27.76 23.653-14.85-2.118 6.933-4.517 13.28-8.252 17.601-1.96 2.265-7.381 7.409-11.55 8.25-2.958.598-6.453-1.316-9.902-.55-7.023 1.562-10.062 16.497-21.451 14.302-10.731-2.068-3.123-26.835-11.549-26.951-7.141-.1-7.587 17.62-7.151 27.5.258 5.887 1.121 12.798-3.302 13.752-9.72 2.1-7.149-18.519-7.149-27.503V17.66c-3.369 1.793-10.697 2.13-12.652 6.6-1.581 3.617-.364 12.338-.547 17.603-.245 6.966.363 14.532 0 22.552-.535 11.745 3.187 25.397-4.952 29.153-7.988-5.562-4.951-21.038-4.951-33.554 0-13.196.847-26.88-1.102-36.854-8.106 1.409-12.675 2.196-15.952 6.602-4.372 5.881-4.162 16.4 1.1 20.352 5.005 3.758 13.271.512 14.3 6.052.919 4.924-4.444 6.83-7.149 7.15-8.084.96-18.123-6.921-20.354-13.752-4.183-12.833 3.904-27.314 13.201-32.452 14.848-8.206 35.183-1.362 42.905-17.053 3.016-.267 5.115.385 6.6 1.65M99.555 107.318c11.96 7.622 18.901 24.718 13.751 41.804-9.006 29.88-48.926 28.539-86.909 25.3.16-6.786 5.213-12.583 8.801-18.699 7.098-12.105 13.65-23.391 20.902-36.306 3.032-5.395 7.05-14.606 15.952-10.998 3.995 10.735-5.247 19.105-9.902 26.952a699 699 0 0 0-14.302 25.301c25.552 2.586 57.621.495 53.355-26.403-.768-4.85-4.328-9.995-7.149-13.201-4.891-5.556-13.59-6.472-10.451-17.602 1.887-6.687 13.42-11.02 19.251-18.151 22.819-27.907 2.059-64.111-27.503-69.857-20.46-3.978-51.674 4.537-59.405 20.903-3.737 7.908-3.625 19.939-.55 26.951 2.496 5.696 15.985 13.194 6.6 20.903-29.124-4.748-27.019-50.854-7.15-67.657C38.655-3.574 89.67-3.231 111.659 18.76c24.328 24.327 15.857 71.428-12.102 88.557z" clip-rule="evenodd"/><path fill="#fff" fill-rule="evenodd" d="M451.587 105.666c11.414 8.947 18.979 28.84 12.103 46.755-4.041 10.529-16.374 20.716-29.703 22.552-16.3 2.242-36.632-1.187-56.106-.553 6.256-16.002 17.264-34.078 26.951-50.605 3.68-6.271 6.84-18.189 17.604-14.849 5.952 9.326-3.187 18.623-7.702 25.853-5.145 8.241-10.731 16.21-14.304 24.201 5.447 3.488 13.461 2.44 19.802 2.202 16.265-.61 29.974-5.161 32.455-18.703 2.494-13.63-4.116-20.647-11.002-25.851-3.57-2.696-8.049-4.233-8.801-7.702-1.769-8.162 7.643-11.41 13.749-16.503 9.811-8.175 18.493-22.051 15.406-42.351-2.809-18.454-18.007-32.729-38.508-34.653-28.552-2.684-63.568 9.006-59.406 40.154.652 4.872 5.06 8.688 4.95 14.3-.104 5.497-7.197 13.603-9.899 18.703-3.694 6.974-6.404 11.898-9.9 18.701 11.099 6.297 22.013 13.586 18.701 31.903-1.349 7.444-8.774 15.995-13.751 23.104-13.801 19.686-35.872 42.069-64.357 44.551-23.809 2.081-192.765.551-250.272.551-8.114 0-28.874 2.555-29.152-6.604-.284-9.353 18.895-7.148 27.5-7.148 59.518 0 225.693 1.834 248.623 0 24.663-1.967 43.464-22.248 56.106-39.599 3.477-4.778 10.733-12.809 11.55-18.152.741-4.866-2.35-12.93-6.052-13.752-9.377-2.085-13.694 11.47-19.25 19.801-5.818 8.727-11.795 16.432-17.601 21.449-9.2 7.951-25.774 19.097-41.804 13.206-3.666-1.349-8.171-7.519-11.554-7.703-2.94-.158-5.229 3.576-7.698 4.95-8.995 4.998-17.092 2.568-25.303-4.95-6.896 2.324-12.071 7.14-19.801 7.151-11.388.019-19.275-9.414-24.202-17.055-12.952 8.352-32.409 22.916-50.605 13.751-5.996-3.018-12.758-11.141-13.201-20.349-.785-16.294 12.471-38.343 24.751-44.004 15.219-7.016 36.297 1.095 33.005 20.349-.873 5.1-8.562 13.114-14.302 15.952-5.658 2.799-28.04 8.277-24.204-4.951 2.72-9.379 25.428-3.085 23.103-18.151-8.968-6.034-17.396 2.448-22.003 9.35-2.499 3.742-10.446 20.534-3.85 27.503 6.134 6.478 21.119.077 28.602-3.853 6.855-3.598 12.126-8.386 17.051-13.747 4.469-4.87 7.712-12.251 12.651-18.154 7.04-8.414 24.106-18.78 37.403-14.3 3.782 1.274 10.8 6.554 12.652 13.201 4.108 14.743-7.364 21.402-7.7 35.755 1.959 7.488 10.654 5.751 14.3 0 3.226-5.09 3.468-12.998 6.052-19.256 7.259-17.595 19.571-35.671 47.854-28.601 9.197 5.301 11.587 30.312-3.851 30.804-5.984-3.143-3.083-11.061-3.852-17.604-10.958-4.074-19.673 6.38-24.202 14.3-4.639 8.118-6.949 22.239 3.301 25.854 13.917 4.908 30.239-10.614 35.754-18.152 3.867-5.289 6.933-12.255 11-18.7 7.688-12.176 14.231-22.445 22.004-36.305 3.221-5.749 9.318-14.403 9.898-19.251.487-4.044-1.469-8.873-1.648-11.551-2.644-39.435 29.909-60.734 71.507-57.756 31.411 2.25 52.716 24.094 54.452 55.556 1.236 22.197-8.618 37.175-25.294 48.953zm-238.171 18.701c-4.099 1.899-11.924 9.844-16.015 17.902-12.193 24.009 17.617 24.681 27.858.398 1.265-2.997 4.383-13.539 2.461-17.201-1.935-3.68-11.164-2.55-14.304-1.1z" clip-rule="evenodd"/><path fill="#fff" fill-rule="evenodd" d="M530.796 117.77c6.432-4.377 10.594-13.222 24.752-10.451 4.215.824 9.365 6.146 9.9 11 1.489 13.507-16.512 20.484-13.202 35.204.99 4.396 6.06 7.821 13.202 6.6 9.659-1.653 14.696-15.912 19.802-25.853 3.025-5.896 5.283-9.563 8.25-14.853 3.44-6.133 5.937-11.957 9.901-12.65 3.373-.589 7.588.85 8.801 3.85 2.499 6.192-6.644 15.967-9.353 20.906-11.23 20.47-22.226 40.972-33.005 61.052 30.998 1.057 65.921 1.161 67.108-24.75.739-16.109-15.724-25.227-18.151-39.056-3.203-18.248 16.211-28.21 31.901-21.451 3.515 1.513 8.277 6.72 9.902 11.55 1.733 5.144 2.681 16.315-3.849 17.054-9.141 1.029-9.738-25.461-22.554-12.105 1.652 17.387 16.96 20.524 17.603 40.154.645 19.77-15.465 39.168-36.304 41.804-18.442 2.331-30.634-.956-52.256.55-22.171 28.64-39.666 70.171-68.206 93.51-10.693 8.743-26.835 18.462-44.552 18.703-16.555.22-30.029-9.261-37.405-18.703-6.567-8.402-13.563-22.493-13.201-37.952.643-27.407 15.116-41.042 30.249-55.007-8.869-.259-23.862 0-35.751 0-10.445 0-31.129 2.793-32.454-5.499-1.653-10.348 14.766-8.254 29.153-8.254h73.703c10.353 0 30.957-2.514 35.756 1.103 1.692 1.276 2.83 7.16 1.65 9.349-2.329 4.316-13.341 2.391-19.803 2.75-33.429 1.853-60.399 18.841-68.756 45.106-8.057 25.321 14.055 49.524 33.554 51.704 1.859.207 5.117.215 7.7 0 23.377-1.94 40.202-21.697 53.906-39.603 14.261-18.636 25.996-37.556 35.753-57.206-11.641-2.021-37.603 5.643-36.306-7.698 1.098-11.241 32.308-3.373 41.804-6.053 6.792-1.911 8.214-8.961 10.453-14.3-10.391-9.213-25.527-10.798-22.004-34.103 1.329-8.796 7.943-13.845 10.999-22.002-4.487 1.714-11.683 6.178-15.951 10.45-13.498 13.513-13.354 42.291-40.704 42.354-11.082.027-20.842-5.47-24.2-13.202-8.782-20.215 10.359-42.951 21.448-51.708 3.906.134 5.325 2.749 7.703 4.405 5.733-13.961 29.779-11.182 33.015 3.299zm-19.802 6.047c1.545 1.236 3.341 2.044 4.951.551.562-4.112-4.896-4.023-4.951-.551m-15.953.551h-1.65c-7.821 6.853-20.153 37.978 1.1 36.305 10.006-.788 15.153-13.334 17.604-21.452-9.038-1.596-13.906-7.363-17.053-14.853z" clip-rule="evenodd"/></svg>
